src/components/00-materials/images-raw/Productivity/Upload.svg

<svg xmlns="http://www.w3.org/2000/svg" viewBox="0 0 96 96"><defs><style>.cls-2{fill:none;stroke:#00008f;stroke-linecap:round;stroke-linejoin:round;stroke-width:2px}</style></defs><g id="Layer_2" data-name="Layer 2"><g id="icons"><path fill="#fff" d="M0 0h96v96H0z"/><path class="cls-2" d="M79 59.5v17a2.5 2.5 0 0 1-2.5 2.5h-57a2.5 2.5 0 0 1-2.5-2.5v-17a2.5 2.5 0 0 1 2.5-2.5 2.5 2.5 0 0 1 2.5 2.5V74h52V59.5a2.5 2.5 0 0 1 2.5-2.5 2.5 2.5 0 0 1 2.5 2.5z"/><path class="cls-2" d="M67.5 38a3.54 3.54 0 0 1-5 0L52 27.54v32a4 4 0 0 1-8 0v-32L33.5 38a3.54 3.54 0 0 1-5-5l17-17a3.52 3.52 0 0 1 5 0l17 17a3.54 3.54 0 0 1 0 5z"/></g></g></svg>

<svg xmlns="http://www.w3.org/2000/svg" viewBox="0 0 96 96"><defs><style>.cls-1{fill:#fff;}.cls-2{fill:none;stroke:#00008f;stroke-linecap:round;stroke-linejoin:round;stroke-width:2px;}</style></defs><title>Upload</title><g id="Layer_2" data-name="Layer 2"><g id="icons"><rect class="cls-1" width="96" height="96"/><path class="cls-2" d="M79,59.5v17A2.5,2.5,0,0,1,76.5,79h-57A2.5,2.5,0,0,1,17,76.5v-17A2.5,2.5,0,0,1,19.5,57h0A2.5,2.5,0,0,1,22,59.5V74H74V59.5A2.5,2.5,0,0,1,76.5,57h0A2.5,2.5,0,0,1,79,59.5Z"/><path class="cls-2" d="M67.5,38a3.54,3.54,0,0,1-5,0L52,27.54v32a4,4,0,0,1-8,0v-32L33.5,38a3.54,3.54,0,0,1-5-5l17-17a3.52,3.52,0,0,1,5,0l17,17A3.54,3.54,0,0,1,67.5,38Z"/></g></g></svg>
